build/img/svg/html1.svg

<?xml version="1.0" ?><svg height="32px" version="1.1" viewBox="0 0 32 32" width="32px" xmlns="http://www.w3.org/2000/svg" xmlns:sketch="http://www.bohemiancoding.com/sketch/ns" xmlns:xlink="http://www.w3.org/1999/xlink"><title/><desc/><defs/><g fill="none" fill-rule="evenodd" id="Page-1" stroke="none" stroke-width="1"><g fill="#929292" id="icon-76-document-file-html"><path d="M19,26 L19,28.0025781 C19,29.1090746 18.1057238,30 17.0025781,30 L1.99742191,30 C0.890925393,30 0,29.1012878 0,27.9926701 L0,5.00732994 C0,3.89833832 0.899249601,3 2.0085302,3 L12,3 L12,9.00189865 C12,10.1132936 12.8980806,11 14.0059191,11 L19,11 L19,13 L6.00684834,13 C4.34621185,13 3,14.3422643 3,15.9987856 L3,23.0012144 C3,24.6573979 4.33599155,26 6.00684834,26 L19,26 L19,26 L19,26 Z M13,3 L13,8.99707067 C13,9.55097324 13.4509752,10 13.990778,10 L19,10 L13,3 L13,3 Z M6.00732994,14 C4.89871223,14 4,14.9001762 4,15.992017 L4,23.007983 C4,24.1081436 4.89833832,25 6.00732994,25 L28.9926701,25 C30.1012878,25 31,24.0998238 31,23.007983 L31,15.992017 C31,14.8918564 30.1016617,14 28.9926701,14 L6.00732994,14 L6.00732994,14 Z M29,22 L29,23 L24,23 L24,16 L25,16 L25,22 L29,22 L29,22 Z M14,17 L14,23 L15,23 L15,17 L17,17 L17,16 L12,16 L12,17 L14,17 L14,17 Z M10,19 L10,16 L11,16 L11,23 L10,23 L10,20 L7,20 L7,23 L6,23 L6,16 L7,16 L7,19 L10,19 L10,19 Z M20.5,19 L19,16 L18.5,16 L18,16 L18,23 L19,23 L19,18 L20,20 L20.5,20 L21,20 L22,18 L22,23 L23,23 L23,16 L22.5,16 L22,16 L20.5,19 L20.5,19 Z" id="document-file-html"/></g></g></svg>

<svg height="32" viewBox="0 0 32 32" width="32" xmlns="http://www.w3.org/2000/svg"><title/><path d="M19 26v2.003A1.995 1.995 0 0 1 17.003 30H1.997A2 2 0 0 1 0 27.993V5.007C0 3.898.9 3 2.009 3H12v6.002c0 1.111.898 1.998 2.006 1.998H19v2H6.007A3.003 3.003 0 0 0 3 15.999V23a2.996 2.996 0 0 0 3.007 3H19zM13 3v5.997c0 .554.451 1.003.99 1.003H19l-6-7zM6.007 14C4.9 14 4 14.9 4 15.992v7.016A2 2 0 0 0 6.007 25h22.986C30.1 25 31 24.1 31 23.008v-7.016A2 2 0 0 0 28.993 14H6.007zM29 22v1h-5v-7h1v6h4zm-15-5v6h1v-6h2v-1h-5v1h2zm-4 2v-3h1v7h-1v-3H7v3H6v-7h1v3h3zm10.5 0L19 16h-1v7h1v-5l1 2h1l1-2v5h1v-7h-1l-1.5 3z" fill="#929292" fill-rule="evenodd"/></svg>
